!!!OTL: Papp kommt hannert dem Uewen eraus, S. 32
!!!id: R0049
**kern
*clefG2
*k[]
*C:
{16c
=1
16c
4cc
8cc
=2
8cc
8b
8a
=3
8g
8g
8g
=4
4e}
=5
{8g
=6
4a
8a
=7
8b
8a
8b
=8
[4.cc
=9
8cc]}
8r
=10
{8cc
=11
4ff
8ff
=12
8ff
8ee
8dd
=13
8.ee
16ee
8ee
=14
8ee
8dd}
=15
{8cc
=16
4dd
8dd
=17
8dd
8cc
8b
=18
8cc
8b
8a
=19
4g}
=20
{8g
=21
8.ff
16ff
8ff
=22
8ff
8ee
8dd
=23
8.ee
16ee
8ee
=24
8ee
8dd}
=25
{8cc
=26
8.dd
16dd
8dd
=27
8ff
8dd
8b
=28
8.dd
16cc
8b
=29
4cc}
8r
==
*-
!!!minrhy: 16
!!!meters: 3/8 ]  ZZ[6
!!!cut: Papp kommt hannert dem Uewen eraus, S. 32
!!!reg: Luxemburg
!!!trd: D'Fraen um Kanddaaf an der aler Zeit, Luxemburg 1929
!!!rhy1:   X__X_  X_X_X_  X_X_X_  X__   (x2)
!!!rhy2: X_  X__X_  X_X_X_  X__.  ^_0
!!!key: R0049  16  C 3/8 ]  ZZ[6
!!!mod: HEPTATONIK IONISCH]  AMBITUS[9b
!!!kad: 3+1+25+2+1
!!!akz: +1+153_67+1+1_+4+4+3+3_+2+2+15_+4+4+3+3_+2+4+2+1_
!!!fot: 'a__b__c__d__cw_e__
!!!for: 'a__b__c__av_d__dw_
!!!fok: '\__/__^a_\__^a_^__
!! PHRAS[VORWIEGEND AUFTAKTIG]
!!!fkt: ??
!! RUDEN, J.M.:
!! PR[33] 2K[3] 2G[11] 3K[3] 3G[3] 4A[0] 4Ü[3] 5A[0] 6K[0] 6G[0]
!! 7K[0] 7G[0] 8A[0] MEHR[3] SI[25] ABS[36] SR[14] SP[11]
!! ST[10] 2k[8] 2g[25] 3k[3] 3g[0] 4d[3] 4ü[0] 5d[0] 6k[0] 6g[0]
!! 7k[0] 7g[3] 8d[0] mehr[0] si[42] dm[-17] sr[33] sp[8]
!! 1F[29] 2F[47] 3F[16] 4F[0] LF[0] 2P[8] 3P[0] 4P[0] TRI[0] DF[4] AB[38]
!! TF[0] U3K[0] U3[0] U4[0] U4Ü[0] U5[3] U6K[0] U6[3] U7K[0] U7[8]
!! N1[22] N2K[0] N2[22] N3K[0] N3[24] N4[11] N4Ü[0] N5[5] N6K[0] N6[0]
!!!n7k: 0] N7[3] O1[0] O2K[0] O2[0] O3K[0] O3[0] HÖ[0
